svg_80x80/sinatra.svg

<svg viewBox="0 0 80 80" xmlns="http://www.w3.org/2000/svg">
<rect width="100%" height="100%" fill="white"/>
<path d="M4.86538 52.7258C4.86538 52.7258 -1.21345 40.9284 18.8512 34.3182C28.6053 31.138 38.7443 29.2901 48.9932 28.8248C60.2052 28.4465 70.1475 30.3918 74.4882 37.0019C77.6492 41.7839 75.758 47.6376 69.7062 52.1404C66.1039 54.8421 58.1069 57.5438 52.7936 59.1018C47.4802 60.6598 37.0787 62.6681 28.5503 62.1998C20.0219 61.7315 9.43125 60.4887 4.86538 52.7258Z" fill="url(#paint0_radial_30_1015)"/>
<path d="M4.86538 52.7258C4.86538 52.7258 -1.21345 40.9284 18.8512 34.3182C28.6053 31.138 38.7443 29.2901 48.9932 28.8248C60.2052 28.4465 70.1475 30.3918 74.4882 37.0019C77.6492 41.7839 75.758 47.6376 69.7062 52.1404C66.1039 54.8421 58.1069 57.5438 52.7936 59.1018C47.4802 60.6598 37.0787 62.6681 28.5503 62.1998C20.0219 61.7315 9.43125 60.4887 4.86538 52.7258ZM28.7304 61.8395C37.0516 62.3168 47.201 60.3086 52.3613 58.8317C57.5215 57.3547 65.4015 54.8421 68.9407 52.1404C74.8484 47.7097 77.2349 42.2342 73.9299 37.119C69.7422 30.6259 59.5658 28.6266 48.6419 29.0139C38.62 29.5426 28.7163 31.43 19.2024 34.6244C-0.366913 41.0815 5.56782 52.6358 5.56782 52.6358C10.0797 60.1645 20.4092 61.3713 28.7304 61.8395V61.8395Z" fill="#CEC7BC"/>
<path d="M20.8775 43.3152C19.1394 42.0454 16.6899 35.8224 17.6355 34.4626C19.0145 32.304 20.0788 29.96 20.7965 27.5012C21.589 24.7545 22.7057 18.9098 24.9211 16.8475C27.1365 14.7852 30.4415 14.7852 34.8273 15.2535C39.2131 15.7218 51.875 18.0272 54.973 19.1169C58.0709 20.2066 62.0604 22.2779 61.8263 27.0869C61.5921 31.896 62.0244 34.2915 61.4661 36.9932C60.9077 39.6949 55.063 44.9002 47.7144 45.2784C40.3658 45.6566 22.6246 44.585 20.8775 43.3152V43.3152Z" fill="url(#paint1_linear_30_1015)"/>
<path d="M41.6806 37.3803C41.6806 37.3803 49.2634 36.3807 53.8382 32.103C58.4131 27.8253 54.3696 24.7544 53.1268 23.9979C51.884 23.2414 47.7234 21.2242 41.1493 21.5213C34.5751 21.8185 28.082 21.8726 28.5413 26.7446C29.0006 31.6167 34.2779 37.3803 41.6806 37.3803V37.3803Z" fill="url(#paint2_radial_30_1015)"/>
<path d="M24.921 22.7462C24.0925 22.2149 23.9754 19.3241 27.0463 17.3428C30.1173 15.3616 38.0242 16.5774 43.1575 17.8111C48.2907 19.0449 56.666 20.792 56.1977 21.2693C55.7294 21.7466 43.3646 20.2066 37.7 20.4948C30.0002 20.9181 26.2178 23.5748 24.921 22.7462V22.7462Z" fill="url(#paint3_linear_30_1015)"/>
<path d="M61.6821 36.1735C61.6011 36.1735 61.565 36.4437 61.448 36.5878C60.4754 38.1818 57.5845 40.8925 51.0014 40.8925H33.1251C21.85 40.8925 18.581 37.8576 17.7525 35.6692C17.6984 35.4621 17.6084 35.2009 17.5183 35.2009C17.4283 35.2009 17.3652 35.6692 17.3652 35.6692L16.4647 43.8464C16.4647 47.5927 26.1728 50.6276 38.6546 50.6276C51.1365 50.6276 61.8442 48.8265 61.8442 43.8464C61.8442 43.8464 61.9073 38.8572 61.8442 36.6418C61.9253 36.4077 61.8892 36.1735 61.6821 36.1735Z" fill="url(#paint4_linear_30_1015)"/>
<radialGradient id="paint0_radial_30_1015" cx="0" cy="0" r="1" gradientUnits="userSpaceOnUse" gradientTransform="translate(56.2227 45.7122) rotate(170.256) scale(52.576 28.6536)">
<stop offset="0.48" stop-color="#F3EFE9"/>
<stop offset="0.57" stop-color="#EEEAE3"/>
<stop offset="0.69" stop-color="#E1DBD2"/>
<stop offset="0.82" stop-color="#CDC5B7"/>
<stop offset="0.96" stop-color="#B4AA98"/>
</radialGradient>
<linearGradient id="paint1_linear_30_1015" x1="19.8058" y1="29.0412" x2="62.1235" y2="32.2472" gradientUnits="userSpaceOnUse">
<stop offset="0.09" stop-color="#D7D0C6"/>
<stop offset="0.25" stop-color="#CDC7BB"/>
<stop offset="0.4" stop-color="#C7C2B5"/>
<stop offset="0.52" stop-color="#CBC6BA"/>
<stop offset="0.67" stop-color="#D7D1C7"/>
<stop offset="0.78" stop-color="#E6DFD6"/>
<stop offset="0.89" stop-color="#E7E3D9"/>
<stop offset="0.93" stop-color="#E5DFD3"/>
<stop offset="0.98" stop-color="#DFD5C6"/>
</linearGradient>
<radialGradient id="paint2_radial_30_1015" cx="0" cy="0" r="1" gradientUnits="userSpaceOnUse" gradientTransform="translate(36.4848 22.9089) rotate(84.8572) scale(15.9321 42.6964)">
<stop offset="0.07" stop-color="#B2A797"/>
<stop offset="0.29" stop-color="#C7BDAE"/>
<stop offset="0.48" stop-color="#D6CEBF"/>
<stop offset="0.69" stop-color="#E2DCD0"/>
<stop offset="0.94" stop-color="#F7F5EE"/>
</radialGradient>
<linearGradient id="paint3_linear_30_1015" x1="24.4257" y1="19.6123" x2="56.2157" y2="19.6123" gradientUnits="userSpaceOnUse">
<stop offset="0.06" stop-color="#F7F5EE"/>
<stop offset="0.23" stop-color="#E6E1D6"/>
<stop offset="0.43" stop-color="#D8D1C3"/>
<stop offset="0.64" stop-color="#D0C8B9"/>
<stop offset="0.86" stop-color="#CEC5B5"/>
</linearGradient>
<linearGradient id="paint4_linear_30_1015" x1="16.5097" y1="42.9188" x2="61.9343" y2="42.9188" gradientUnits="userSpaceOnUse">
<stop offset="0.02" stop-color="#262222"/>
<stop offset="0.1" stop-color="#2F2C2C"/>
<stop offset="0.3" stop-color="#424143"/>
<stop offset="0.4" stop-color="#4A4A4C"/>
<stop offset="0.51" stop-color="#4A4A4C"/>
<stop offset="0.78" stop-color="#383536"/>
<stop offset="1" stop-color="#262222"/>
</linearGradient>
</svg>

<svg xmlns="http://www.w3.org/2000/svg" viewBox="0 0 80 80">
  <rect width="100%" height="100%" fill="#fff"/>
  <path fill="url(#a)" d="M4.9 52.7s-6.1-11.8 14-18.4c9.7-3.2 19.8-5 30-5.5 11.3-.4 21.2 1.6 25.6 8.2 3.1 4.8 1.3 10.6-4.8 15.1a82.2 82.2 0 0 1-41.2 10c-8.5-.4-19-1.6-23.6-9.4Z"/>
  <path fill="#CEC7BC" d="M4.9 52.7s-6.1-11.8 14-18.4c9.7-3.2 19.8-5 30-5.5 11.3-.4 21.2 1.6 25.6 8.2 3.1 4.8 1.3 10.6-4.8 15.1a82.2 82.2 0 0 1-41.2 10c-8.5-.4-19-1.6-23.6-9.4Zm23.8 9.1c8.4.5 18.5-1.5 23.7-3 5.1-1.4 13-4 16.5-6.7 6-4.4 8.3-9.9 5-15-4.2-6.5-14.3-8.5-25.3-8-10 .4-19.9 2.3-29.4 5.5-19.6 6.5-13.6 18-13.6 18 4.5 7.6 14.8 8.8 23.1 9.2Z"/>
  <path fill="url(#b)" d="M20.9 43.3c-1.8-1.3-4.2-7.5-3.3-8.8a27 27 0 0 0 3.2-7c.8-2.7 2-8.6 4.1-10.7 2.2-2 5.5-2 10-1.5 4.3.4 17 2.7 20 3.8 3.2 1.1 7.2 3.2 7 8-.3 4.8.1 7.2-.4 9.9-.6 2.7-6.4 7.9-13.8 8.3-7.3.4-25-.7-26.8-2Z"/>
  <path fill="url(#c)" d="M41.7 37.4s7.6-1 12.1-5.3c4.6-4.3.6-7.3-.7-8.1-1.2-.8-5.4-2.8-12-2.5-6.5.3-13 .4-12.6 5.2.5 5 5.8 10.7 13.2 10.7Z"/>
  <path fill="url(#d)" d="M25 22.7c-1-.5-1-3.4 2-5.4 3.1-2 11-.7 16.2.5 5 1.2 13.5 3 13 3.5-.5.4-12.8-1-18.5-.8-7.7.4-11.5 3-12.8 2.2Z"/>
  <path fill="url(#e)" d="m61.7 36.2-.3.4c-1 1.6-3.8 4.3-10.4 4.3H33.1c-11.3 0-14.5-3-15.3-5.2l-.3-.5-.1.5-1 8.1c0 3.8 9.8 6.8 22.3 6.8 12.4 0 23.1-1.8 23.1-6.8v-7.2c.1-.2 0-.4-.1-.4Z"/>
  <radialGradient id="a" cx="0" cy="0" r="1" gradientTransform="matrix(-51.8 8.9 -4.8 -28.2 56.2 45.7)" gradientUnits="userSpaceOnUse">
    <stop offset=".5" stop-color="#F3EFE9"/>
    <stop offset=".6" stop-color="#EEEAE3"/>
    <stop offset=".7" stop-color="#E1DBD2"/>
    <stop offset=".8" stop-color="#CDC5B7"/>
    <stop offset="1" stop-color="#B4AA98"/>
  </radialGradient>
  <linearGradient id="b" x1="19.8" x2="62.1" y1="29" y2="32.2" gradientUnits="userSpaceOnUse">
    <stop offset=".1" stop-color="#D7D0C6"/>
    <stop offset=".3" stop-color="#CDC7BB"/>
    <stop offset=".4" stop-color="#C7C2B5"/>
    <stop offset=".5" stop-color="#CBC6BA"/>
    <stop offset=".7" stop-color="#D7D1C7"/>
    <stop offset=".8" stop-color="#E6DFD6"/>
    <stop offset=".9" stop-color="#E7E3D9"/>
    <stop offset=".9" stop-color="#E5DFD3"/>
    <stop offset="1" stop-color="#DFD5C6"/>
  </linearGradient>
  <radialGradient id="c" cx="0" cy="0" r="1" gradientTransform="matrix(1.4 15.9 -42.5 3.8 36.5 23)" gradientUnits="userSpaceOnUse">
    <stop offset=".1" stop-color="#B2A797"/>
    <stop offset=".3" stop-color="#C7BDAE"/>
    <stop offset=".5" stop-color="#D6CEBF"/>
    <stop offset=".7" stop-color="#E2DCD0"/>
    <stop offset=".9" stop-color="#F7F5EE"/>
  </radialGradient>
  <linearGradient id="d" x1="24.4" x2="56.2" y1="19.6" y2="19.6" gradientUnits="userSpaceOnUse">
    <stop offset=".1" stop-color="#F7F5EE"/>
    <stop offset=".2" stop-color="#E6E1D6"/>
    <stop offset=".4" stop-color="#D8D1C3"/>
    <stop offset=".6" stop-color="#D0C8B9"/>
    <stop offset=".9" stop-color="#CEC5B5"/>
  </linearGradient>
  <linearGradient id="e" x1="16.5" x2="61.9" y1="42.9" y2="42.9" gradientUnits="userSpaceOnUse">
    <stop offset="0" stop-color="#262222"/>
    <stop offset=".1" stop-color="#2F2C2C"/>
    <stop offset=".3" stop-color="#424143"/>
    <stop offset=".4" stop-color="#4A4A4C"/>
    <stop offset=".5" stop-color="#4A4A4C"/>
    <stop offset=".8" stop-color="#383536"/>
    <stop offset="1" stop-color="#262222"/>
  </linearGradient>
</svg>
